svgs/sharp-regular/mosquito-net.svg

<svg xmlns="http://www.w3.org/2000/svg" viewBox="0 0 640 512"><!--! Font Awesome Pro 6.6.0 by @fontawesome - https://fontawesome.com License - https://fontawesome.com/license (Commercial License) Copyright 2024 Fonticons, Inc. --><path d="M256 242.2l0 23.1-59.3 59.3-4.7 4.7 0 6.6 0 44.2-30.3 60.6-7.2 14.3 28.6 14.3 7.2-14.3 32-64 1.7-3.4 0-3.8 0-41.4 32-32 0 50 0 32 64 0 0-32 0-50 32 32 0-6.6 0-38.6-32-32 0-23.1 32 27.9 0-14.1 32 0 0-32 80 0 16 0 64 0 3 0c-11.7-9.9-26.3-16.5-42.4-18.5L344.7 181.6l49.6-41.3 8.4-7-3.5-10.4L385.4 81.6 414 30.2l7.8-14L393.8 .6l-7.8 14L354 72.2l-3.4 6.2 2.2 6.7 12.5 37.6L320 160.5l0-22.6 0-32-23.8 0 0-42.2 0-8.2-16.3 0 0 8.2 0 42.2-23.8 0 0 32 0 22.6-45.4-37.8 12.5-37.6 2.2-6.7L222 72.2 190 14.6l-7.8-14-28 15.5 7.8 14 28.6 51.4-13.8 41.3-3.5 10.4 8.4 7 49.6 41.3L71.4 205.5C30.6 210.6 0 245.2 0 286.3c0 72.6 87.8 109 139.2 57.6L256 242.2zM105.2 310C84.1 331.2 48 316.2 48 286.3c0-16.9 12.6-31.1 29.4-33.2c.4 0 .8-.1 1.1-.2l111.2-16.6-82 71.4c-.8 .7-1.6 1.5-2.4 2.3zM528 256l-32 0 0 16 0 16-48 0 0-16 0-16-32 0 0 16 0 16-16 0-16 0 0 32 16 0 16 0 0 48-16 0-16 0 0 32 16 0 16 0 0 48-16 0-16 0 0 32 16 0 16 0 0 16 0 16 32 0 0-16 0-16 48 0 0 16 0 16 32 0 0-16 0-16 48 0 0 16 0 16 32 0 0-16 0-16 16 0 16 0 0-32-16 0-16 0 0-48 16 0 16 0 0-32-16 0-16 0 0-48 16 0 16 0 0-32-16 0-16 0 0-16 0-16-32 0 0 16 0 16-48 0 0-16 0-16zm0 64l48 0 0 48-48 0 0-48zm0 80l48 0 0 48-48 0 0-48zm-80-80l48 0 0 48-48 0 0-48zm0 80l48 0 0 48-48 0 0-48z"/></svg>

<svg xmlns="http://www.w3.org/2000/svg" viewBox="0 0 640 512"><!--! Font Awesome Pro 6.4.0 by @fontawesome - https://fontawesome.com License - https://fontawesome.com/license (Commercial License) Copyright 2023 Fonticons, Inc. --><path d="M256 242.2v23.1l-59.3 59.3-4.7 4.7V336v44.2l-30.3 60.6-7.2 14.3 28.6 14.3 7.2-14.3 32-64 1.7-3.4V384l0-41.4 32-32v50l0 32h64v-32-50l32 32V336 297.4l-32-32V242.2l32 27.9V256h32V224h80 16 64 3c-11.7-9.9-26.3-16.5-42.4-18.5L344.7 181.6l49.6-41.3 8.4-7-3.5-10.4L385.4 81.6 414 30.2l7.8-14L393.8 .6l-7.8 14L354 72.2l-3.4 6.2 2.2 6.7 12.5 37.6L320 160.5V137.9v-32H296.2V63.7 55.5l-16.3 0v8.2 42.2l-23.8 0v32 22.6l-45.4-37.8 12.5-37.6 2.2-6.7L222 72.2 190 14.6l-7.8-14-28 15.5 7.8 14 28.6 51.4-13.8 41.3-3.5 10.4 8.4 7 49.6 41.3L71.4 205.5C30.6 210.6 0 245.2 0 286.3c0 72.6 87.8 109 139.2 57.6L256 242.2zM105.2 310C84.1 331.2 48 316.2 48 286.3c0-16.9 12.6-31.1 29.4-33.2c.4 0 .8-.1 1.1-.2l111.2-16.6-82 71.4c-.8 .7-1.6 1.5-2.4 2.3zM528 256H496v16 16H448V272 256H416v16 16H400 384v32h16 16v48H400 384v32h16 16v48H400 384v32h16 16v16 16h32V496 480h48v16 16h32V496 480h48v16 16h32V496 480h16 16V448H624 608V400h16 16V368H624 608V320h16 16V288H624 608V272 256H576v16 16H528V272 256zm0 64h48v48H528V320zm0 80h48v48H528V400zm-80-80h48v48H448V320zm0 80h48v48H448V400z"/></svg>
